X:18
T: ICH BIN EIN PREUSSE
N: B0021
O: Europa, Mitteleuropa, Deutschland, Preussen
R: politisch, national, Vaterlands - Lied
M: 4/4
L: 1/16
K: Bb
F2F2F2 | d6B2A3Bc2A2 | B4F4z2
F2G2F2 | e6dcB3AB3d | c8z2
c2=B2c2 | d6c2c2B2A3G | G2F2F6
A2G2F2 | c6AFC3BA2G2 | F8z4
F2A2 | c6A2B6d2 | cBAGF4z4
F2A2 | c6A2B6d2 | cf=efF4z2
F2F2F2 | B6B2d3cB2c2 | d8z2
d2d2d2 | f3ed2c2d4c4 | B8z2
F2F2F2 | B6B2d3cB2c2 | d8z2
d2d2d2 | f3ed2c2d4c4 | B8z2

